dist/img/logo.svg

<svg width="270" height="23" viewBox="0 0 270 23" fill="none" xmlns="http://www.w3.org/2000/svg">
<path d="M5.02051 18.4258H12.5791V22H0.713867V0.671875H5.02051V18.4258ZM28.185 12.7715H21.476V18.4258H29.4154V22H17.1693V0.671875H29.3861V4.26074H21.476V9.2998H28.185V12.7715ZM40.0115 13.7676L38.3123 15.9062V22H34.0057V0.671875H38.3123V9.97363L39.6746 7.67383L43.6443 0.671875H48.9178L42.8094 10.0469L49.0203 22H43.908L40.0115 13.7676ZM67.2629 13.2549C67.2629 16.1162 66.5842 18.3379 65.2268 19.9199C63.8791 21.502 62.0041 22.293 59.6018 22.293C57.2092 22.293 55.3293 21.5117 53.9621 19.9492C52.5949 18.377 51.9016 16.1797 51.882 13.3574V9.70996C51.882 6.78027 52.5607 4.49512 53.9182 2.85449C55.2756 1.2041 57.1604 0.378906 59.5725 0.378906C61.9455 0.378906 63.8156 1.18945 65.1828 2.81055C66.55 4.42188 67.2434 6.6875 67.2629 9.60742V13.2549ZM62.9416 9.68066C62.9416 7.75684 62.6682 6.32617 62.1213 5.38867C61.5744 4.45117 60.7248 3.98242 59.5725 3.98242C58.4299 3.98242 57.5852 4.43652 57.0383 5.34473C56.4914 6.24316 56.2082 7.61523 56.1887 9.46094V13.2549C56.1887 15.1201 56.467 16.4971 57.0236 17.3857C57.5803 18.2646 58.4396 18.7041 59.6018 18.7041C60.7248 18.7041 61.5598 18.2744 62.1066 17.415C62.6535 16.5459 62.9318 15.2031 62.9416 13.3867V9.68066ZM79.7047 14.5879H72.5416V11.1309H79.7047V14.5879ZM235.587 19.8906C235.587 19.2266 235.807 18.6797 236.247 18.25C236.696 17.8203 237.277 17.6055 237.99 17.6055C238.683 17.6055 239.259 17.8203 239.718 18.25C240.177 18.6699 240.407 19.2168 240.407 19.8906C240.407 20.5742 240.172 21.126 239.704 21.5459C239.245 21.9561 238.673 22.1611 237.99 22.1611C237.296 22.1611 236.72 21.9512 236.261 21.5312C235.812 21.1113 235.587 20.5645 235.587 19.8906ZM253.903 10.1494L252.526 10.0322C251.394 10.0322 250.627 10.5303 250.227 11.5264V22H246.066V6.15039H249.978L250.095 7.86426C250.749 6.52637 251.652 5.85742 252.805 5.85742C253.273 5.85742 253.654 5.9209 253.947 6.04785L253.903 10.1494ZM265.935 20.5498C265.076 21.7119 263.923 22.293 262.478 22.293C261.023 22.293 259.919 21.7949 259.167 20.7988C258.415 19.793 258.039 18.333 258.039 16.4189V6.15039H262.185V16.5215C262.204 18.0645 262.717 18.8359 263.723 18.8359C264.67 18.8359 265.354 18.4258 265.774 17.6055V6.15039H269.949V22H266.052L265.935 20.5498Z" fill="black"/>
<path d="M89.7588 18.4258H97.3174V22H85.4521V0.671875H89.7588V18.4258ZM115.985 13.2549C115.985 16.1162 115.306 18.3379 113.949 19.9199C112.601 21.502 110.726 22.293 108.324 22.293C105.931 22.293 104.051 21.5117 102.684 19.9492C101.317 18.377 100.623 16.1797 100.604 13.3574V9.70996C100.604 6.78027 101.283 4.49512 102.64 2.85449C103.997 1.2041 105.882 0.378906 108.294 0.378906C110.667 0.378906 112.537 1.18945 113.905 2.81055C115.272 4.42188 115.965 6.6875 115.985 9.60742V13.2549ZM111.663 9.68066C111.663 7.75684 111.39 6.32617 110.843 5.38867C110.296 4.45117 109.447 3.98242 108.294 3.98242C107.152 3.98242 106.307 4.43652 105.76 5.34473C105.213 6.24316 104.93 7.61523 104.911 9.46094V13.2549C104.911 15.1201 105.189 16.4971 105.746 17.3857C106.302 18.2646 107.162 18.7041 108.324 18.7041C109.447 18.7041 110.282 18.2744 110.829 17.415C111.375 16.5459 111.654 15.2031 111.663 13.3867V9.68066ZM135.678 19.583C134.847 20.4814 133.827 21.1602 132.616 21.6191C131.415 22.0684 130.096 22.293 128.661 22.293C126.21 22.293 124.305 21.5361 122.948 20.0225C121.591 18.499 120.892 16.2871 120.853 13.3867V9.54883C120.853 6.60938 121.493 4.34863 122.772 2.7666C124.061 1.1748 125.936 0.378906 128.397 0.378906C130.712 0.378906 132.455 0.950195 133.627 2.09277C134.808 3.23535 135.492 5.02734 135.678 7.46875H131.488C131.371 6.11133 131.088 5.18848 130.638 4.7002C130.189 4.20215 129.486 3.95312 128.529 3.95312C127.367 3.95312 126.522 4.37793 125.995 5.22754C125.468 6.07715 125.194 7.42969 125.175 9.28516V13.1523C125.175 15.0957 125.463 16.5117 126.039 17.4004C126.625 18.2793 127.582 18.7188 128.91 18.7188C129.76 18.7188 130.448 18.5479 130.975 18.2061L131.356 17.9424V14.0312H128.339V10.7793H135.678V19.583ZM145.321 22H141.015V0.671875H145.321V22ZM160.048 16.4043C160.048 15.5352 159.824 14.8809 159.375 14.4414C158.935 13.9922 158.129 13.5283 156.958 13.0498C154.819 12.2393 153.281 11.292 152.343 10.208C151.406 9.11426 150.937 7.8252 150.937 6.34082C150.937 4.54395 151.572 3.10352 152.841 2.01953C154.121 0.925781 155.742 0.378906 157.705 0.378906C159.013 0.378906 160.18 0.657227 161.206 1.21387C162.231 1.76074 163.017 2.53711 163.564 3.54297C164.121 4.54883 164.399 5.69141 164.399 6.9707H160.107C160.107 5.97461 159.892 5.21777 159.462 4.7002C159.043 4.17285 158.432 3.90918 157.631 3.90918C156.879 3.90918 156.294 4.13379 155.874 4.58301C155.454 5.02246 155.244 5.61816 155.244 6.37012C155.244 6.95605 155.478 7.48828 155.947 7.9668C156.416 8.43555 157.246 8.92383 158.437 9.43164C160.517 10.1836 162.026 11.1064 162.963 12.2002C163.911 13.2939 164.384 14.6855 164.384 16.375C164.384 18.2305 163.794 19.6807 162.612 20.7256C161.43 21.7705 159.824 22.293 157.793 22.293C156.416 22.293 155.161 22.0098 154.028 21.4434C152.895 20.877 152.006 20.0664 151.362 19.0117C150.727 17.957 150.41 16.7119 150.41 15.2764H154.731C154.731 16.5068 154.97 17.4004 155.449 17.957C155.927 18.5137 156.709 18.792 157.793 18.792C159.296 18.792 160.048 17.9961 160.048 16.4043ZM183.154 4.26074H177.881V22H173.56V4.26074H168.374V0.671875H183.154V4.26074ZM192.227 22H187.92V0.671875H192.227V22ZM212.403 14.8955C212.296 17.3271 211.612 19.168 210.352 20.418C209.093 21.668 207.315 22.293 205.02 22.293C202.608 22.293 200.758 21.502 199.469 19.9199C198.189 18.3281 197.55 16.0625 197.55 13.123V9.53418C197.55 6.60449 198.214 4.34863 199.542 2.7666C200.87 1.1748 202.716 0.378906 205.079 0.378906C207.403 0.378906 209.166 1.02832 210.367 2.32715C211.578 3.62598 212.266 5.49121 212.432 7.92285H208.111C208.072 6.41895 207.838 5.38379 207.408 4.81738C206.988 4.24121 206.212 3.95312 205.079 3.95312C203.927 3.95312 203.111 4.3584 202.633 5.16895C202.154 5.96973 201.9 7.29297 201.871 9.13867V13.167C201.871 15.2861 202.105 16.7412 202.574 17.5322C203.053 18.3232 203.868 18.7188 205.02 18.7188C206.153 18.7188 206.934 18.4453 207.364 17.8984C207.794 17.3418 208.038 16.3408 208.096 14.8955H212.403ZM226.163 16.4043C226.163 15.5352 225.939 14.8809 225.489 14.4414C225.05 13.9922 224.244 13.5283 223.072 13.0498C220.934 12.2393 219.396 11.292 218.458 10.208C217.521 9.11426 217.052 7.8252 217.052 6.34082C217.052 4.54395 217.687 3.10352 218.956 2.01953C220.236 0.925781 221.857 0.378906 223.82 0.378906C225.128 0.378906 226.295 0.657227 227.321 1.21387C228.346 1.76074 229.132 2.53711 229.679 3.54297C230.236 4.54883 230.514 5.69141 230.514 6.9707H226.222C226.222 5.97461 226.007 5.21777 225.577 4.7002C225.157 4.17285 224.547 3.90918 223.746 3.90918C222.994 3.90918 222.408 4.13379 221.988 4.58301C221.569 5.02246 221.359 5.61816 221.359 6.37012C221.359 6.95605 221.593 7.48828 222.062 7.9668C222.53 8.43555 223.361 8.92383 224.552 9.43164C226.632 10.1836 228.141 11.1064 229.078 12.2002C230.026 13.2939 230.499 14.6855 230.499 16.375C230.499 18.2305 229.908 19.6807 228.727 20.7256C227.545 21.7705 225.939 22.293 223.907 22.293C222.53 22.293 221.276 22.0098 220.143 21.4434C219.01 20.877 218.121 20.0664 217.477 19.0117C216.842 17.957 216.525 16.7119 216.525 15.2764H220.846C220.846 16.5068 221.085 17.4004 221.564 17.957C222.042 18.5137 222.823 18.792 223.907 18.792C225.411 18.792 226.163 17.9961 226.163 16.4043Z" fill="#DE1832"/>
</svg>

<svg width="270" height="23" viewBox="0 0 270 23" fill="none" xmlns="http://www.w3.org/2000/svg"><path d="M5.02 18.426h7.56V22H.713V.672H5.02v17.754zm23.165-5.654h-6.709v5.654h7.94V22H17.168V.672h12.217V4.26h-7.91V9.3h6.709v3.471zm11.826.996l-1.699 2.138V22h-4.306V.672h4.306v9.302l1.363-2.3 3.97-7.002h5.273l-6.109 9.375L49.02 22h-5.112l-3.897-8.232zm27.252-.513c0 2.861-.679 5.083-2.036 6.665-1.348 1.582-3.223 2.373-5.625 2.373-2.393 0-4.273-.781-5.64-2.344-1.367-1.572-2.06-3.77-2.08-6.592V9.71c0-2.93.679-5.215 2.036-6.856C55.276 1.204 57.16.38 59.572.38c2.373 0 4.244.81 5.61 2.432 1.368 1.61 2.061 3.877 2.08 6.796v3.648zM62.942 9.68c0-1.924-.274-3.355-.82-4.292-.548-.938-1.397-1.407-2.55-1.407-1.142 0-1.987.455-2.534 1.363-.547.898-.83 2.27-.85 4.116v3.794c0 1.865.279 3.242.836 4.13.556.88 1.416 1.32 2.578 1.32 1.123 0 1.958-.43 2.505-1.29.547-.87.825-2.212.835-4.028V9.68zm16.763 4.907h-7.163V11.13h7.163v3.457zm155.882 5.303c0-.664.22-1.211.66-1.641.449-.43 1.03-.645 1.743-.645.693 0 1.269.215 1.728.645.459.42.689.967.689 1.64 0 .684-.235 1.236-.703 1.656-.459.41-1.031.615-1.714.615-.694 0-1.27-.21-1.729-.63-.449-.42-.674-.966-.674-1.64zm18.316-9.742l-1.377-.117c-1.132 0-1.899.498-2.299 1.494V22h-4.161V6.15h3.912l.117 1.714c.654-1.338 1.557-2.007 2.71-2.007.468 0 .849.064 1.142.19l-.044 4.102zm12.032 10.4c-.859 1.163-2.012 1.744-3.457 1.744-1.455 0-2.559-.498-3.311-1.494-.752-1.006-1.128-2.466-1.128-4.38V6.15h4.146v10.371c.019 1.543.532 2.315 1.538 2.315.947 0 1.631-.41 2.051-1.23V6.15h4.175V22h-3.897l-.117-1.45z" fill="#000"/><path d="M89.759 18.426h7.558V22H85.452V.672h4.307v17.754zm26.226-5.171c0 2.861-.679 5.083-2.036 6.665-1.348 1.582-3.223 2.373-5.625 2.373-2.393 0-4.273-.781-5.64-2.344-1.367-1.572-2.061-3.77-2.08-6.592V9.71c0-2.93.679-5.215 2.036-6.856 1.357-1.65 3.242-2.475 5.654-2.475 2.373 0 4.243.81 5.611 2.432 1.367 1.61 2.06 3.877 2.08 6.796v3.648zm-4.322-3.574c0-1.924-.273-3.355-.82-4.292-.547-.938-1.396-1.407-2.549-1.407-1.142 0-1.987.455-2.534 1.363-.547.898-.83 2.27-.849 4.116v3.794c0 1.865.278 3.242.835 4.13.556.88 1.416 1.32 2.578 1.32 1.123 0 1.958-.43 2.505-1.29.546-.87.825-2.212.834-4.028V9.68zm24.015 9.902c-.831.898-1.851 1.577-3.062 2.036-1.201.45-2.52.674-3.955.674-2.451 0-4.356-.757-5.713-2.27-1.357-1.524-2.056-3.736-2.095-6.636V9.549c0-2.94.64-5.2 1.919-6.782 1.289-1.592 3.164-2.388 5.625-2.388 2.315 0 4.058.571 5.23 1.714 1.181 1.142 1.865 2.934 2.051 5.376h-4.19c-.117-1.358-.4-2.28-.85-2.769-.449-.498-1.152-.747-2.109-.747-1.162 0-2.007.425-2.534 1.275-.527.85-.801 2.202-.82 4.057v3.867c0 1.944.288 3.36.864 4.248.586.88 1.543 1.319 2.871 1.319.85 0 1.538-.171 2.065-.513l.381-.264v-3.91h-3.017v-3.253h7.339v8.804zM145.321 22h-4.306V.672h4.306V22zm14.727-5.596c0-.869-.224-1.523-.673-1.963-.44-.449-1.246-.913-2.417-1.391-2.139-.81-3.677-1.758-4.615-2.842-.937-1.094-1.406-2.383-1.406-3.867 0-1.797.635-3.237 1.904-4.321 1.28-1.094 2.901-1.641 4.864-1.641 1.308 0 2.475.278 3.501.835a5.651 5.651 0 0 1 2.358 2.329c.557 1.006.835 2.148.835 3.428h-4.292c0-.996-.215-1.753-.645-2.27-.419-.528-1.03-.792-1.831-.792-.752 0-1.337.225-1.757.674-.42.44-.63 1.035-.63 1.787 0 .586.234 1.118.703 1.597.469.469 1.299.957 2.49 1.465 2.08.752 3.589 1.674 4.526 2.768.948 1.094 1.421 2.486 1.421 4.175 0 1.855-.59 3.306-1.772 4.35-1.182 1.045-2.788 1.568-4.819 1.568-1.377 0-2.632-.283-3.765-.85a6.417 6.417 0 0 1-2.666-2.431c-.635-1.055-.952-2.3-.952-3.736h4.321c0 1.23.239 2.124.718 2.681.478.557 1.26.835 2.344.835 1.503 0 2.255-.796 2.255-2.388zm23.106-12.143h-5.273V22h-4.321V4.26h-5.186V.673h14.78V4.26zM192.227 22h-4.307V.672h4.307V22zm20.176-7.104c-.107 2.431-.791 4.272-2.051 5.522-1.259 1.25-3.037 1.875-5.332 1.875-2.412 0-4.262-.791-5.551-2.373-1.28-1.592-1.919-3.858-1.919-6.797V9.534c0-2.93.664-5.185 1.992-6.767 1.328-1.592 3.174-2.388 5.537-2.388 2.324 0 4.087.65 5.288 1.948 1.211 1.299 1.899 3.164 2.065 5.596h-4.321c-.039-1.504-.273-2.54-.703-3.106-.42-.576-1.196-.864-2.329-.864-1.152 0-1.968.405-2.446 1.216-.479.8-.733 2.124-.762 3.97v4.028c0 2.12.234 3.574.703 4.365.479.791 1.294 1.187 2.446 1.187 1.133 0 1.914-.274 2.344-.82.43-.557.674-1.558.732-3.004h4.307zm13.76 1.508c0-.869-.224-1.523-.674-1.963-.439-.449-1.245-.913-2.417-1.391-2.138-.81-3.676-1.758-4.614-2.842-.937-1.094-1.406-2.383-1.406-3.867 0-1.797.635-3.237 1.904-4.321 1.28-1.094 2.901-1.641 4.864-1.641 1.308 0 2.475.278 3.501.835a5.651 5.651 0 0 1 2.358 2.329c.557 1.006.835 2.148.835 3.428h-4.292c0-.996-.215-1.753-.645-2.27-.42-.528-1.03-.792-1.831-.792-.752 0-1.338.225-1.758.674-.419.44-.629 1.035-.629 1.787 0 .586.234 1.118.703 1.597.468.469 1.299.957 2.49 1.465 2.08.752 3.589 1.674 4.526 2.768.948 1.094 1.421 2.486 1.421 4.175 0 1.855-.591 3.306-1.772 4.35-1.182 1.045-2.788 1.568-4.82 1.568-1.377 0-2.631-.283-3.764-.85a6.417 6.417 0 0 1-2.666-2.431c-.635-1.055-.952-2.3-.952-3.736h4.321c0 1.23.239 2.124.718 2.681.478.557 1.259.835 2.343.835 1.504 0 2.256-.796 2.256-2.388z" fill="#DE1832"/></svg>
